dist/images/html.svg

<svg width="30" height="35" viewBox="0 0 30 35" fill="none" xmlns="http://www.w3.org/2000/svg">
<path d="M27.2214 30.391L29.8917 0H0.509795H0.508362L3.17866 30.391L15.1613 34.4L27.2214 30.391ZM7.60623 25.0088L7.14756 19.188H10.7968L11.0649 22.1135L15.1585 23.2272L19.2664 22.1135L19.7251 17.3362H6.9555L5.97653 6.15617H24.425L24.0881 9.81833H10.0271L10.341 13.6124H23.7771L22.7351 25.0074L15.2445 27.0814V27.1043H15.1599L7.60623 25.0088Z" fill="white"/>
</svg>

<svg width="30" height="35" fill="none" xmlns="http://www.w3.org/2000/svg"><path d="M27.221 30.391L29.891 0H.509l2.67 30.391L15.162 34.4l12.06-4.009zM7.606 25.009l-.458-5.821h3.649l.268 2.925 4.094 1.114 4.107-1.114.46-4.777H6.955l-.98-11.18h18.449l-.337 3.662h-14.06l.313 3.794h13.436l-1.042 11.395-7.49 2.074v.023h-.085L7.606 25.01z" fill="#fff"/></svg>
